X:2796
T:Celebrated Quadrille, The
R:Jig
O:England
M:6/8
A:Lancashire
B:Winder
K:G
d | g2d d^cd | B2d G2B | c2e A2G | F2A DEF | \
G2G B2d | g2b d2B | cBA d2F | G3 G2 :: \
d |\
gfg d2g | b2g d2B | cBc A2f | a2f d2f | gfg d2g\
| [1 b2g d2g | f2f ea^c | d3 d3 \
:| [2 b2g d2B | cBA d2F | G3 G2 :|**


